packages/kaspersky-hexa-ui-icons/src/iconsSVGs/64x42/FlagSn.svg

<svg xmlns="http://www.w3.org/2000/svg" width="64" height="42" fill="none" viewBox="0 0 64 42"><g clip-path="url(#a)"><rect width="64" height="42" fill="#fff" rx="5"/><path fill="#f13642" d="M42.6666 0H64v42H42.6666z"/><path fill="#17a052" fill-rule="evenodd" d="M0 42h21.3333V0H0z" clip-rule="evenodd"/><path fill="#fff166" fill-rule="evenodd" d="M21.3334 42h21.3333V0H21.3334z" clip-rule="evenodd"/><path fill="#17a052" fill-rule="evenodd" d="m31.9998 23.8699-4.1145 2.7931 1.385-4.7762-3.9279-3.05 4.9705-.1588 1.6869-4.6781 1.687 4.6781 4.9704.1588-3.9278 3.05 1.3849 4.7762z" clip-rule="evenodd"/></g><defs><clipPath id="a"><rect width="64" height="42" fill="#fff" rx="5"/></clipPath></defs></svg>

<svg width="64" height="42" viewBox="0 0 64 42" fill="none" xmlns="http://www.w3.org/2000/svg">
<g clip-path="url(#clip0_37941_2340)">
<rect width="64" height="42" rx="5" fill="white"/>
<rect x="42.6666" width="21.3334" height="42" fill="#F13642"/>
<path fill-rule="evenodd" clip-rule="evenodd" d="M0 42H21.3333V0H0V42Z" fill="#17A052"/>
<path fill-rule="evenodd" clip-rule="evenodd" d="M21.3334 42H42.6667V0H21.3334V42Z" fill="#FFF166"/>
<path fill-rule="evenodd" clip-rule="evenodd" d="M31.9998 23.8699L27.8853 26.663L29.2703 21.8868L25.3424 18.8368L30.3129 18.678L31.9998 13.9999L33.6868 18.678L38.6572 18.8368L34.7294 21.8868L36.1143 26.663L31.9998 23.8699Z" fill="#17A052"/>
</g>
<defs>
<clipPath id="clip0_37941_2340">
<rect width="64" height="42" rx="5" fill="white"/>
</clipPath>
</defs>
</svg>
